lib/brands/icons/intel.svg

<svg xmlns="http://www.w3.org/2000/svg" fill="none" aria-hidden="true" viewBox="0 0 48 48"><g id="intel-Icon"><g id="Group 601"><rect id="dot" width="2.53" height="2.53" x="8" y="17" fill="#0068B5"/><g id="logo"><path fill="black" d="M40 17H37.4653V30.2891H40V17Z"/><path fill="black" d="M22.1518 17.6865H24.6865V21.2187H26.2706V23.2753H24.6865L24.6865 26.9932C24.6865 28.1533 25.681 28.2148 26.2442 28.1006V30.3418C22.8862 30.3418 22.152 29.3137 22.1518 26.4404V17.6865Z"/><path fill="black" d="M14.3894 22.2958C14.9362 21.6884 15.8994 21.0078 17.2409 21.0078C19.5115 21.0078 20.8581 22.959 20.8581 24.6201V30.289H18.429V25.0947C18.4114 24.4267 17.9855 23.0908 16.4224 23.0908C15.3428 23.0908 14.7132 23.8037 14.3894 24.4909V30.289H11.8548V21.2187H14.3894V22.2958Z"/><path fill="black" d="M8 21.2187H10.5347V30.289H8V21.2187Z"/><path fill="black" fill-rule="evenodd" d="M29.1546 26.5976H36.4092V25.7538C36.4092 23.1327 34.2815 21.0078 31.6568 21.0078C29.032 21.0078 26.9043 23.1327 26.9043 25.7539C26.9043 28.3751 29.032 30.5 31.6568 30.5C33.1969 30.5 34.5661 29.7672 35.4328 28.636L33.7554 27.3542C33.2711 27.9862 32.5114 28.3906 31.6568 28.3906C30.494 28.3906 29.5069 27.64 29.1546 26.5976ZM34.1405 24.8574C33.7731 23.8425 32.7997 23.1172 31.6568 23.1172C30.5138 23.1172 29.5404 23.8425 29.173 24.8574H34.1405Z" clip-rule="evenodd"/></g></g></g></svg>

<svg xmlns="http://www.w3.org/2000/svg" fill="none" aria-hidden="true" viewBox="0 0 48 48"><path fill="#0068B5" d="M8 17h2.53v2.53H8z"/><g fill="#000"><path d="M40 17h-2.535v13.29H40V17Zm-17.848.686h2.534v3.533h1.585v2.056h-1.585v3.718c0 1.16.995 1.222 1.558 1.108v2.24c-3.358 0-4.092-1.027-4.092-3.9v-8.755Zm-7.762 4.61c.546-.608 1.51-1.288 2.85-1.288 2.272 0 3.618 1.951 3.618 3.612v5.669H18.43v-5.194c-.018-.668-.444-2.004-2.007-2.004-1.08 0-1.709.713-2.033 1.4v5.798h-2.534v-9.07h2.534v1.077ZM8 21.219h2.535v9.07H8v-9.07Z"/><path fill-rule="evenodd" d="M29.155 26.598h7.254v-.844a4.75 4.75 0 0 0-4.752-4.746 4.75 4.75 0 0 0-4.753 4.746 4.75 4.75 0 0 0 4.753 4.746c1.54 0 2.91-.733 3.776-1.864l-1.678-1.282a2.641 2.641 0 0 1-4.6-.757Zm4.986-1.74a2.641 2.641 0 0 0-4.968 0h4.968Z" clip-rule="evenodd"/></g></svg>
